local/share/icons/dracula-icons-main/scalable/mimetypes/application-illustrator.svg

<?xml version="1.0" encoding="UTF-8"?>
<svg xmlns="http://www.w3.org/2000/svg" xmlns:xlink="http://www.w3.org/1999/xlink" width="64" height="64" viewBox="0 0 64 64">
<defs>
<filter id="filter-remove-color" x="0%" y="0%" width="100%" height="100%">
<feColorMatrix color-interpolation-filters="sRGB" values="0 0 0 0 1 0 0 0 0 1 0 0 0 0 1 0 0 0 1 0" />
</filter>
<mask id="mask-0">
<g filter="url(#filter-remove-color)">
<rect x="-6.4" y="-6.4" width="76.8" height="76.8" fill="rgb(0%, 0%, 0%)" fill-opacity="0.5"/>
</g>
</mask>
<linearGradient id="linear-pattern-0" gradientUnits="userSpaceOnUse" x1="49.570999" y1="52.714001" x2="51.714001" y2="54.856998" gradientTransform="matrix(0.617345, 0, 0, 0.617345, -18.167916, -19.050025)">
<stop offset="0" stop-color="rgb(0%, 0%, 0%)" stop-opacity="1"/>
<stop offset="1" stop-color="rgb(0%, 0%, 0%)" stop-opacity="0"/>
</linearGradient>
<clipPath id="clip-0">
<rect x="0" y="0" width="17" height="17"/>
</clipPath>
<g id="source-6627" clip-path="url(#clip-0)">
<path fill-rule="evenodd" fill="url(#linear-pattern-0)" d="M 14.816406 12.171875 L 11.113281 15.875 L 13.492188 15.875 C 14.226562 15.875 14.816406 15.285156 14.816406 14.550781 Z M 14.816406 12.171875 "/>
</g>
</defs>
<path fill-rule="nonzero" fill="rgb(20.392157%, 10.980392%, 1.960784%)" fill-opacity="1" d="M 3.441406 1.058594 L 13.492188 1.058594 C 14.222656 1.058594 14.816406 1.652344 14.816406 2.382812 L 14.816406 14.550781 C 14.816406 15.28125 14.222656 15.875 13.492188 15.875 L 3.441406 15.875 C 2.707031 15.875 2.117188 15.28125 2.117188 14.550781 L 2.117188 2.382812 C 2.117188 1.652344 2.707031 1.058594 3.441406 1.058594 Z M 3.441406 1.058594 "/>
<g mask="url(#mask-0)">
<use xlink:href="#source-6627"/>
</g>
<path fill-rule="nonzero" fill="rgb(100%, 48.627451%, 0%)" fill-opacity="1" d="M 6.816406 9.703125 L 6.433594 11.160156 C 6.421875 11.199219 6.410156 11.207031 6.359375 11.207031 L 5.648438 11.207031 C 5.597656 11.207031 5.589844 11.191406 5.597656 11.132812 L 6.976562 6.3125 C 7 6.226562 7.015625 6.148438 7.023438 5.910156 C 7.023438 5.875 7.039062 5.863281 7.0625 5.863281 L 8.082031 5.863281 C 8.117188 5.863281 8.132812 5.871094 8.140625 5.910156 L 9.683594 11.144531 C 9.691406 11.183594 9.683594 11.207031 9.644531 11.207031 L 8.839844 11.207031 C 8.800781 11.207031 8.777344 11.199219 8.765625 11.164062 L 8.363281 9.703125 Z M 8.164062 8.917969 C 8.027344 8.378906 7.710938 7.207031 7.585938 6.636719 L 7.578125 6.636719 C 7.476562 7.207031 7.21875 8.164062 7.015625 8.917969 Z M 10.347656 6.21875 C 10.347656 5.910156 10.566406 5.726562 10.84375 5.726562 C 11.136719 5.726562 11.335938 5.925781 11.335938 6.21875 C 11.335938 6.539062 11.128906 6.714844 10.832031 6.714844 C 10.550781 6.714844 10.347656 6.539062 10.347656 6.21875 Z M 10.40625 7.320312 C 10.40625 7.28125 10.421875 7.261719 10.464844 7.261719 L 11.226562 7.261719 C 11.265625 7.261719 11.285156 7.277344 11.285156 7.320312 L 11.285156 11.148438 C 11.285156 11.1875 11.273438 11.207031 11.226562 11.207031 L 10.472656 11.207031 C 10.425781 11.207031 10.410156 11.183594 10.410156 11.144531 L 10.410156 7.320312 Z M 10.40625 7.320312 "/>
</svg>

<svg width="64" height="64" version="1.1" viewBox="0 0 16.933 16.933" xmlns="http://www.w3.org/2000/svg">
 <defs>
  <linearGradient id="a" x1="49.571" x2="51.714" y1="52.714" y2="54.857" gradientTransform="matrix(2.3333,0,0,2.3333,-68.667,-72.001)" gradientUnits="userSpaceOnUse">
   <stop offset="0"/>
   <stop stop-opacity="0" offset="1"/>
  </linearGradient>
 </defs>
 <g transform="scale(.26458)">
  <rect x="8" y="4" width="48" height="56" ry="5" fill="#341c05" style="paint-order:stroke fill markers"/>
  <path d="m56 46-14 14h9c2.77 0 5-2.23 5-5z" fill="url(#a)" fill-rule="evenodd" opacity=".5" stroke-width="8.8191" style="paint-order:stroke fill markers"/>
 </g>
 <path class="st1" d="m6.8166 9.7034-0.3832 1.4552c-0.0097 0.03881-0.02425 0.0485-0.07276 0.0485h-0.71304c-0.04851 0-0.05821-0.01455-0.04851-0.07276l1.3776-4.8215c0.02425-0.08731 0.0388-0.16492 0.04851-0.4026 0-0.03395 0.01455-0.0485 0.0388-0.0485h1.0186c0.03395 0 0.04851 0.0097 0.05821 0.0485l1.5425 5.2338c0.0097 0.03881 0 0.06306-0.0388 0.06306h-0.8052c-0.0388 0-0.06306-0.0097-0.07276-0.04366l-0.4026-1.46zm1.3485-0.7858c-0.13582-0.53842-0.45596-1.7123-0.57722-2.2798h-0.0097c-0.10186 0.56752-0.35894 1.5279-0.56267 2.2798zm2.1828-2.6969c0-0.31044 0.21828-0.49476 0.49476-0.49476 0.29589 0 0.49476 0.19887 0.49476 0.49476 0 0.32014-0.20858 0.49476-0.50446 0.49476-0.28134 0-0.48506-0.17462-0.48506-0.49476zm0.05821 1.1011c0-0.0388 0.01455-0.05821 0.05821-0.05821h0.76154c0.0388 0 0.05821 0.01455 0.05821 0.05821v3.8271c0 0.0388-0.0097 0.05821-0.05821 0.05821h-0.75185c-0.04851 0-0.06306-0.02425-0.06306-0.06306v-3.8223z" enable-background="new" fill="#ff7c00" stroke-width=".048506"/>
</svg>
